X: 15565
T: Glorious 13th, The
R: reel
M: 4/4
K: Dmajor
(3ABc|:d2 A2 d3 c|BABc dedB|A2 D2 A3 G|FEFG {Bc}BABc|
d2 A2 d3 c|BABc dedB|A2 D2 A2 GF|1 EFGE D2 (3ABc:|2 EFGE D4||
|:FGFG Az A2|FGFG Bz B2|AdAF G2 FE|FGAF E2 D2|
FGFG Az A2|FGFG Bz B2|AdAF G2 FE|1 FGAF E2 D2:|2 FGAF E2||

